X: 42813
T: Who Stole The Miner's Hat?
R: polka
M: 2/4
K: Amixolydian
|:A>B cd|ec d2|AB/c/ de|fg e2|
A>B cd|ec d>c|BA GB|A2 A2:|
|:a2 g/f/e|f/e/d e2|A>B cd|ed eg|
a2 g/f/e|f/e/d e>d|cA BG|A2 A2:|

